public/svg/streaming/viewster.svg

<?xml version="1.0" encoding="UTF-8" standalone="no"?>
<svg width="50px" height="32px" viewBox="0 0 50 32" version="1.1" xmlns="http://www.w3.org/2000/svg" xmlns:xlink="http://www.w3.org/1999/xlink">
    <defs></defs>
    <g stroke="none" stroke-width="1" fill="none" fill-rule="evenodd">
        <g fill="#F3962F">
            <path d="M13.0680224,0.0378681627 C15.1276297,0.0161290323 17.187237,0.0245441795 19.2468443,0.0441795231 L19.2482468,0.0988779804 C19.8401122,0.104488079 20.4354839,0.0869565217 21.0238429,0.151472651 C21.7279102,0.216690042 22.4375877,0.244740533 23.1367461,0.357643759 C23.2910238,0.371669004 23.4453015,0.383590463 23.5995792,0.392706872 L23.6009818,0.440392707 C23.7503506,0.448106592 23.9004208,0.46002805 24.0497896,0.476157083 C24.4915849,0.59887798 24.9551192,0.62973352 25.3899018,0.781907433 C25.4424965,0.793828892 25.5469846,0.816970547 25.5995792,0.828892006 C25.828892,0.908835905 26.0624123,0.977559607 26.2952314,1.04978962 C26.3639551,1.07784011 26.4333801,1.10659187 26.502805,1.13534362 C26.7629734,1.24614306 27.0280505,1.34782609 27.2798036,1.47755961 C28.3120617,2.00981767 29.1886396,2.83660589 29.7440393,3.86044881 C29.9004208,4.12973352 30.0140252,4.42075736 30.1451613,4.7026648 C30.2847125,5.04558205 30.3835905,5.40322581 30.4985975,5.75596073 C30.6115007,6.1802244 30.7089762,6.61009818 30.7664797,7.04628331 C30.7762973,7.04698457 30.7966339,7.0483871 30.8064516,7.04978962 C30.8141655,7.17882188 30.8246844,7.3085554 30.8366059,7.43828892 C30.9803647,8.10168303 30.9985975,8.78471248 31.0729313,9.45792426 C31.098878,9.79873773 31.1115007,10.1402525 31.1129032,10.4824684 L31.1626928,10.4817672 C31.2047686,13.4873773 31.2061711,16.4943899 31.1556802,19.5 C31.0596073,19.9803647 31.1290323,20.4768583 31.0596073,20.9607293 C31.026648,21.7251052 30.9340813,22.4845722 30.8786816,23.2468443 L30.8323983,23.2468443 C30.826087,23.4102384 30.8162693,23.5750351 30.8106592,23.7391304 L30.7678822,23.740533 C30.7173913,24.2475456 30.628331,24.7531557 30.4936886,25.2440393 C30.4831697,25.2973352 30.4614306,25.4039271 30.4509116,25.457223 C30.3429173,25.7805049 30.2734923,26.1157083 30.1500701,26.4340813 C30.1220196,26.5042076 30.0932679,26.5743338 30.0631136,26.6437588 C29.9726508,26.8856942 29.8674614,27.1227209 29.7468443,27.3513324 C29.2251052,28.4095372 28.3639551,29.3008415 27.3043478,29.826087 C27.0245442,29.9775596 26.7335203,30.1065919 26.4319776,30.2103787 C26.3639551,30.2377279 26.2959327,30.2657784 26.2286115,30.2938289 C25.8842917,30.4179523 25.5238429,30.4817672 25.1760168,30.5932679 C25.1037868,30.6051893 25.0322581,30.6178121 24.9607293,30.631136 C24.3464236,30.7987377 23.7061711,30.8309958 23.0827489,30.9467041 C21.0539972,31.1591865 19.0105189,31.1816269 16.9719495,31.1921459 C16.4368864,31.1984572 15.901122,31.1746143 15.3674614,31.2131837 C15.1065919,31.2019635 14.8457223,31.1753156 14.5862553,31.2068724 C13.371669,31.1514727 12.154979,31.1851332 10.941094,31.1143058 C10.3204769,31.1058906 9.70406732,31.0280505 9.08345021,31.0196353 L9.0799439,30.9719495 C8.84712482,30.9691445 8.61430575,30.9551192 8.38148668,30.9516129 C8.37938289,30.9396914 8.37447405,30.9165498 8.37237027,30.9046283 C7.72931276,30.8625526 7.08835905,30.7706872 6.45862553,30.6346424 C6.26647966,30.598878 6.07854137,30.5469846 5.8884993,30.5042076 C5.62973352,30.4340813 5.36676017,30.3786816 5.11640954,30.2840112 C5.07924264,30.2741935 5.0056101,30.2545582 4.9684432,30.2447405 C4.89901823,30.2131837 4.82959327,30.1823282 4.7601683,30.1535764 C4.57223001,30.088359 4.38639551,30.0168303 4.20546985,29.9340813 C3.35063114,29.5413745 2.58415147,28.9565217 2.01192146,28.2075736 C1.75525947,27.8464236 1.52664797,27.4670407 1.33800842,27.0666199 C1.22720898,26.815568 1.13534362,26.5568022 1.03295933,26.302244 C1.02384292,26.2664797 1.0056101,26.1935484 0.996493689,26.1570827 C0.835203366,25.7152875 0.730014025,25.2524544 0.644460028,24.7903226 C0.636746143,24.7896213 0.620617111,24.7868163 0.612903226,24.786115 C0.507713885,24.1704067 0.436886396,23.5483871 0.335904628,22.9333801 C0.316970547,22.7110799 0.3085554,22.4873773 0.302244039,22.2650771 L0.257363254,22.2706872 C0.20687237,21.1346424 0.103085554,20.0007013 0.100280505,18.8632539 C0.0392706872,17.0175316 0.0329593268,15.1704067 0.0392706872,13.3232819 C0.0715287518,11.9228612 0.079943899,10.5189341 0.21598878,9.12412342 C0.233520337,8.87377279 0.248948107,8.62342216 0.257363254,8.37307153 L0.304347826,8.37657784 C0.310659187,8.15848527 0.31486676,7.93828892 0.37026648,7.72580645 C0.445301543,7.13253857 0.542776999,6.53997195 0.699859748,5.9628331 C0.790322581,5.63464236 0.87026648,5.3029453 0.985273492,4.98246844 C1.00911641,4.9312763 1.05750351,4.82819074 1.08204769,4.7769986 C1.08695652,4.75525947 1.09607293,4.71107994 1.10098177,4.68863955 C1.17882188,4.50420757 1.25525947,4.31907433 1.34291725,4.13955119 C1.88639551,2.99929874 2.80995792,2.06030856 3.93267882,1.48387097 C4.15497896,1.36605891 4.39060309,1.2769986 4.62061711,1.17531557 C5.57924264,0.806451613 6.58835905,0.553295933 7.60869565,0.443197756 C7.61009818,0.433380084 7.61290323,0.413043478 7.61430575,0.402524544 C8.61640954,0.306451613 9.61781206,0.16970547 10.6269285,0.164796634 L10.6276297,0.115708275 C11.4453015,0.115708275 12.2629734,0.0743338008 13.0813464,0.0897615708 L13.0680224,0.0378681627 L13.0680224,0.0378681627 Z M10.8457223,8.07503506 C10.3457223,8.35974755 10.0217391,8.86956522 9.83239832,9.40042076 C9.80645161,9.46914446 9.78120617,9.53786816 9.75736325,9.60729313 C9.62762973,10.0091164 9.5315568,10.4235624 9.49158485,10.8443198 C9.48036466,10.8429173 9.45862553,10.8394109 9.44740533,10.8373072 C9.43969144,11.0245442 9.42776999,11.2117812 9.42215989,11.3990182 L9.37587658,11.4039271 C9.30014025,12.4859748 9.2230014,13.5701262 9.23562412,14.6563815 C9.19915849,16.3043478 9.24403927,17.954418 9.37517532,19.5974755 L9.42145863,19.5974755 C9.42636746,19.815568 9.43057504,20.0371669 9.4887798,20.2496494 C9.5631136,20.6542777 9.62482468,21.0638149 9.75525947,21.4551192 C9.77980365,21.5252454 9.80504909,21.5953717 9.83099579,21.6661992 C10.0553997,22.3604488 10.5119215,23.0231417 11.2201964,23.2840112 C11.7454418,23.4403927 12.3036466,23.398317 12.8316971,23.2812062 C13.1900421,23.1865358 13.5441795,23.0743338 13.8955119,22.9565217 C13.9845722,22.9165498 14.0736325,22.8779804 14.1626928,22.8380084 C14.3758766,22.7573633 14.5869565,22.671108 14.7959327,22.5785414 C15.0708275,22.4333801 15.358345,22.3148668 15.6346424,22.173913 C16.4670407,21.7447405 17.286115,21.2896213 18.0946704,20.8176718 C18.5147265,20.5687237 18.9354839,20.3211781 19.3520337,20.0659187 C19.5364656,19.9460028 19.7265077,19.8352034 19.911641,19.71669 C20.8429173,19.1178121 21.7671809,18.4978962 22.5841515,17.7468443 C23.1115007,17.2615708 23.5862553,16.6907433 23.8008415,15.9950912 C23.8253857,15.7145863 23.8267882,15.4319776 23.7966339,15.1514727 C23.6907433,14.8997195 23.5876578,14.6458626 23.4424965,14.414446 C22.8338008,13.5750351 21.9950912,12.941094 21.1500701,12.3569425 C20.6136045,11.9824684 20.0568022,11.6388499 19.4992987,11.2973352 C19.3345021,11.1956522 19.1669004,11.098878 19.0007013,10.9992987 C18.5820477,10.743338 18.1535764,10.5049088 17.7307153,10.2559607 C17.5511921,10.1472651 17.3625526,10.0532959 17.1809257,9.94810659 C16.9747546,9.82187938 16.7580645,9.71458626 16.545582,9.6002805 C16.2952314,9.45441795 16.0350631,9.32678822 15.7784011,9.19354839 C15.5469846,9.07223001 15.3071529,8.96704067 15.0771388,8.84221599 C14.8239832,8.71949509 14.5624123,8.61430575 14.3071529,8.49579243 C14.0757363,8.39270687 13.8373072,8.30575035 13.5974755,8.22440393 C13.5273492,8.19635344 13.4565217,8.17040673 13.384993,8.14516129 C12.9495091,7.99368864 12.4936886,7.88569425 12.0308555,7.87237027 L12.0259467,7.82398317 C11.9193548,7.82748948 11.8120617,7.83099579 11.7061711,7.83520337 C11.4151473,7.89831697 11.1079944,7.92286115 10.8457223,8.07503506 L10.8457223,8.07503506 Z" id="Shape"></path>
            <path d="M44.9495091,6.74474053 C45.4333801,6.57854137 45.943899,6.47685835 46.457223,6.47335203 L46.4586255,6.42706872 C46.5750351,6.42706872 46.6921459,6.42636746 46.8092567,6.4256662 L46.8148668,6.46984572 C47.1914446,6.46914446 47.5666199,6.55820477 47.9018233,6.73071529 C48.4249649,7.02454418 48.786115,7.52244039 49.0392707,8.05469846 C49.1423562,8.28190743 49.2258065,8.51753156 49.299439,8.75666199 C49.3253857,8.8513324 49.3541374,8.94740533 49.384993,9.04207574 C49.5750351,9.65708275 49.6164095,10.3029453 49.7391304,10.9312763 C49.7573633,11.1781206 49.7664797,11.4263675 49.7720898,11.6746143 L49.8190743,11.6654979 C49.9775596,14.4039271 49.9761571,17.1521739 49.8204769,19.8913043 L49.772791,19.8814867 C49.7678822,20.1304348 49.7587658,20.3800842 49.740533,20.6290323 C49.6318373,21.2068724 49.5918654,21.7987377 49.430575,22.3667602 C49.4032258,22.4579243 49.3758766,22.5490884 49.3485273,22.6409537 C49.1802244,23.240533 48.9088359,23.8232819 48.4754558,24.2784011 C48.3162693,24.4088359 48.1500701,24.5287518 47.9768583,24.6388499 C47.2251052,24.9831697 46.3534362,24.8920056 45.5778401,24.6788219 C45.526648,24.6669004 45.4235624,24.6430575 45.3723703,24.631136 C45.0413745,24.513324 44.7026648,24.4186536 44.3779804,24.2847125 C44.1023843,24.1598878 43.8176718,24.0582048 43.5441795,23.9291725 C42.8590463,23.6107994 42.1858345,23.269986 41.5182328,22.9172511 C41.3085554,22.7959327 41.0911641,22.6886396 40.8800842,22.5708275 C40.6732118,22.4474053 40.4579243,22.3401122 40.2503506,22.2194951 C40.0231417,22.0778401 39.7840112,21.9579243 39.5546985,21.8197756 C38.42777,21.1718093 37.3099579,20.5084151 36.2237027,19.7938289 C35.2854137,19.1654979 34.358345,18.5049088 33.5757363,17.6851332 C33.3204769,17.3976157 33.0813464,17.0960729 32.8948107,16.759467 C32.7426367,16.4642356 32.6318373,16.14446 32.6255259,15.8092567 L32.5701262,15.8085554 C32.6136045,15.3373072 32.6956522,14.8590463 32.941094,14.4467041 C33.0322581,14.3008415 33.1241234,14.154979 33.2173913,14.0105189 C34.0112202,13.0182328 35.0273492,12.2363254 36.0680224,11.5196353 C36.7215989,11.0624123 37.401122,10.6451613 38.0757363,10.2215989 C38.2342216,10.1276297 38.3941094,10.0371669 38.5504909,9.94039271 C38.7412342,9.8197756 38.9382889,9.70897616 39.1339411,9.59607293 C40.002805,9.07503506 40.8913043,8.58625526 41.7847125,8.10799439 C42.230014,7.87938289 42.6774194,7.65497896 43.1339411,7.44810659 C43.3415147,7.34922861 43.5539972,7.2601683 43.7685835,7.17741935 C43.8548387,7.13604488 43.9424965,7.09747546 44.029453,7.05750351 C44.2854137,6.96072931 44.5462833,6.88008415 44.802244,6.78330996 C44.8387097,6.77349229 44.9130435,6.7545582 44.9495091,6.74474053 L44.9495091,6.74474053 Z" id="Shape"></path>
        </g>
    </g>
</svg>

<svg width="50" height="32" viewBox="0 0 50 32" xmlns="http://www.w3.org/2000/svg"><g fill="#F3962F" fill-rule="evenodd"><path d="M13.068.038c2.06-.022 4.12-.013 6.18.006V.1c.592.004 1.187-.013 1.776.05.704.067 1.414.095 2.113.208.154.014.308.026.463.035V.44c.15.008.3.02.45.036.442.123.905.154 1.34.306l.21.047c.23.08.462.148.695.22l.208.085c.26.11.525.213.777.343 1.032.532 1.91 1.36 2.464 2.382.156.27.27.56.4.843.14.343.24.7.355 1.053.112.424.21.854.266 1.29l.04.004c.008.13.02.26.03.388.144.664.163 1.347.237 2.02.026.34.04.682.04 1.024h.05c.042 3.005.043 6.012-.007 9.018-.096.48-.027.977-.096 1.46-.033.765-.126 1.525-.18 2.287h-.048c-.006.163-.016.328-.02.492h-.044c-.05.508-.14 1.013-.274 1.504l-.043.213c-.107.324-.177.66-.3.977l-.087.21c-.09.242-.196.48-.316.707-.522 1.06-1.383 1.95-2.443 2.476-.28.152-.57.28-.872.384l-.203.084c-.346.124-.706.188-1.054.3-.072.01-.144.024-.215.037-.614.17-1.254.2-1.877.317-2.03.212-4.072.235-6.11.245-.536.006-1.072-.017-1.606.02-.26-.01-.52-.037-.78-.005-1.215-.056-2.432-.022-3.646-.093-.62-.008-1.236-.086-1.857-.094l-.003-.048c-.233-.003-.466-.017-.7-.02 0-.012-.006-.035-.008-.047-.643-.042-1.284-.134-1.913-.27-.194-.036-.38-.088-.572-.13-.258-.07-.52-.126-.772-.22l-.148-.04c-.07-.032-.138-.063-.208-.09-.188-.067-.374-.138-.555-.22-.854-.394-1.62-.978-2.193-1.727-.257-.362-.485-.74-.674-1.14-.11-.252-.203-.51-.305-.766l-.037-.145c-.16-.442-.266-.905-.352-1.367l-.03-.004c-.106-.616-.177-1.238-.278-1.853-.02-.222-.027-.446-.034-.668l-.045.006C.207 21.136.103 20 .1 18.864c-.06-1.845-.067-3.693-.06-5.54.032-1.4.04-2.804.176-4.2.018-.25.033-.5.04-.75l.048.004c.007-.22.01-.44.066-.65.075-.594.173-1.187.33-1.764.09-.328.17-.66.285-.98l.097-.206.02-.088c.077-.186.153-.37.24-.55C1.887 3 2.81 2.06 3.933 1.484c.223-.118.46-.207.69-.31.957-.368 1.966-.62 2.987-.73l.004-.04C8.616.305 9.618.17 10.627.163V.117c.818 0 1.636-.042 2.454-.026L13.07.038zm-2.222 8.037c-.5.285-.824.795-1.014 1.325l-.075.207c-.13.402-.225.817-.265 1.237-.012 0-.033-.005-.045-.007-.007.188-.02.375-.025.562l-.046.004c-.076 1.082-.153 2.166-.14 3.252-.037 1.648.008 3.298.14 4.94h.045c.006.22.01.44.07.654.073.404.135.814.265 1.205l.076.21c.225.695.682 1.358 1.39 1.62.525.155 1.084.113 1.612-.004.358-.093.712-.206 1.064-.323l.267-.12c.213-.08.424-.166.633-.258.275-.147.562-.265.84-.406.83-.43 1.65-.884 2.46-1.356.42-.25.84-.497 1.256-.752.184-.12.375-.23.56-.35.93-.598 1.855-1.218 2.672-1.97.528-.484 1.002-1.055 1.217-1.75.025-.28.027-.564-.003-.845-.106-.25-.21-.504-.355-.736-.608-.84-1.447-1.473-2.292-2.057-.536-.375-1.093-.718-1.65-1.06-.165-.1-.333-.198-.5-.298-.418-.257-.846-.495-1.27-.744-.18-.11-.367-.203-.55-.308-.205-.126-.422-.233-.634-.348-.25-.146-.51-.273-.768-.406-.23-.122-.47-.227-.7-.352-.254-.123-.516-.228-.77-.346-.232-.103-.47-.19-.71-.272-.07-.028-.14-.054-.213-.08-.435-.15-.89-.258-1.354-.272l-.004-.048-.32.01c-.29.064-.598.09-.86.24zM44.95 6.745c.483-.166.994-.268 1.507-.272l.002-.046h.35l.005.043c.376 0 .752.088 1.087.26.523.295.884.792 1.137 1.325.102.227.186.463.26.702.025.094.054.19.085.285.19.615.23 1.26.354 1.89.017.246.026.494.032.743l.047-.01c.158 2.74.156 5.487 0 8.226l-.047-.01c-.005.25-.014.5-.032.75-.108.577-.148 1.17-.31 1.737l-.08.274c-.17.6-.44 1.183-.875 1.638-.16.13-.325.25-.498.36-.752.345-1.624.254-2.4.04-.05-.01-.153-.035-.205-.047-.33-.117-.67-.21-.994-.345-.276-.125-.56-.227-.834-.356-.685-.32-1.358-.66-2.026-1.013-.21-.12-.427-.228-.638-.346-.207-.123-.422-.23-.63-.35-.227-.142-.466-.262-.695-.4-1.127-.648-2.245-1.312-3.33-2.026-.94-.63-1.867-1.29-2.65-2.11-.255-.286-.494-.588-.68-.925-.152-.296-.263-.616-.27-.95h-.055c.044-.473.126-.95.37-1.363.092-.146.184-.292.277-.436.794-.992 1.81-1.774 2.85-2.49.655-.458 1.334-.875 2.01-1.298.157-.094.317-.185.473-.282.19-.12.388-.23.584-.344.87-.52 1.757-1.01 2.65-1.488.446-.23.893-.453 1.35-.66.208-.1.42-.188.635-.27.085-.042.172-.08.26-.12.255-.097.516-.178.772-.275l.148-.038z"/></g></svg>
